_includes/icons/color-nodejs.svg

<svg fill="#666" height="50" viewBox="0 0 48 48" width="50" xmlns="http://www.w3.org/2000/svg"><path d="m17.203125 19.121094-4.90625 2.714844c-.183594.101562-.296875.289062-.296875.492187v5.433594c0 .203125.113281.390625.296875.492187l4.90625 2.71875c.183594.097657.410156.097657.59375 0l4.90625-2.71875c.183594-.101562.296875-.289062.296875-.492187v-5.433594c0-.203125-.113281-.390625-.296875-.492187l-4.90625-2.714844c-.09375-.050781-.195312-.074219-.296875-.074219-.101562 0-.203125.023438-.296875.074219" fill="#388e3c"/><path d="m42.449219 24.011719-.816406.453125c-.03125.015625-.046875.046875-.046875.082031v.90625c0 .035156.015625.066406.046875.082031l.816406.453125c.03125.015625.070312.015625.101562 0l.816407-.453125c.03125-.015625.050781-.046875.050781-.082031v-.90625c0-.035156-.019531-.066406-.050781-.082031l-.816407-.453125c-.015625-.007813-.035156-.011719-.050781-.011719s-.035156.003906-.050781.011719" fill="#388e3c"/><path d="m35.75 13.363281-2.386719-1.332031c-.078125-.042969-.167968-.042969-.242187.003906-.074219.042969-.121094.121094-.121094.207032v8.054687l-2.203125-1.222656c-.09375-.050781-.195312-.074219-.296875-.074219-.101562 0-.203125.023438-.296875.074219l-4.90625 2.714844c-.183594.101562-.296875.289062-.296875.492187v5.433594c0 .203125.113281.390625.296875.492187l4.90625 2.71875c.183594.097657.410156.097657.59375 0l4.90625-2.71875c.183594-.101562.296875-.289062.296875-.492187v-13.925781c0-.175782-.097656-.339844-.25-.425782zm-2.882812 13.09375-2.230469 1.234375c-.082031.046875-.1875.046875-.269531 0l-2.230469-1.234375c-.085938-.046875-.136719-.132812-.136719-.222656v-2.46875c0-.09375.050781-.179687.136719-.226562l2.230469-1.234375h-.003907c.042969-.023438.089844-.03125.136719-.03125s.09375.011718.136719.03125l2.226562 1.234375c.085938.046875.136719.132812.136719.226562v2.46875c0 .089844-.050781.175781-.132812.222656z" fill="#37474f"/><path d="m17.203125 19.121094-5.203125 8.640625c0 .203125.113281.390625.296875.492187l4.90625 2.71875c.183594.097657.410156.097657.59375 0l5.203125-8.644531c0-.203125-.113281-.390625-.296875-.492187l-4.90625-2.714844c-.09375-.050781-.195312-.074219-.296875-.074219-.101562 0-.203125.023438-.296875.074219" fill="#2e7d32"/><path d="m17.203125 19.121094-4.90625 2.714844c-.183594.101562-.296875.289062-.296875.492187l5.203125 8.644531c.183594.097657.410156.097657.59375 0l4.90625-2.71875c.183594-.101562.296875-.289062.296875-.492187l-5.203125-8.640625c-.09375-.050781-.195312-.074219-.296875-.074219-.101562 0-.203125.023438-.296875.074219" fill="#4caf50"/><g fill="#37474f"><path d="m47.703125 21.789063-4.90625-2.714844c-.09375-.050781-.195312-.074219-.296875-.074219-.101562 0-.203125.023438-.296875.074219l-4.90625 2.714844c-.183594.101562-.296875.296875-.296875.503906v5.410156c0 .210938.113281.402344.296875.503906l4.90625 2.71875c.1875.101563.410156.101563.59375 0l2.265625-1.253906c.207031-.113281.203125-.410156-.003906-.527344l-4.921875-2.683593c-.085938-.050782-.136719-.136719-.136719-.230469v-2.464844c0-.09375.050781-.175781.128906-.222656l2.234375-1.234375c.042969-.023438.089844-.035156.136719-.035156s.09375.011718.132813.035156l2.234375 1.238281c.082031.042969.132812.128906.132812.21875v2.011719c0 .085937.046875.167969.121094.210937.074219.039063.164062.039063.242187-.003906l2.398438-1.390625c.144531-.085937.238281-.246094.238281-.417969v-1.878906c0-.210937-.113281-.40625-.296875-.507812z"/><path d="m10.703125 21.789063-4.90625-2.714844c-.09375-.050781-.195312-.074219-.296875-.074219-.101562 0-.203125.023438-.296875.074219l-4.90625 2.714844c-.183594.101562-.296875.296875-.296875.503906v7.464844c0 .085937.046875.167968.121094.210937s.167969.042969.242187 0l2.398438-1.394531c.148437-.085938.238281-.246094.238281-.417969v-4.390625c0-.09375.050781-.179687.128906-.222656l2.234375-1.234375c.042969-.023438.089844-.035156.136719-.035156s.09375.011718.136719.035156l2.234375 1.234375c.078125.046875.128906.128906.128906.222656v4.390625c0 .171875.089844.332031.238281.417969l2.398438 1.394531c.078125.042969.167969.042969.242187 0 .074219-.042969.121094-.125.121094-.210937v-7.460938c0-.210937-.113281-.40625-.296875-.507812z"/></g></svg>

<svg xmlns="http://www.w3.org/2000/svg" viewBox="0 0 48 48" width="50" height="50" fill="#666"><path d="M 17.203125 19.121094 L 12.296875 21.835938 C 12.113281 21.9375 12 22.125 12 22.328125 L 12 27.761719 C 12 27.964844 12.113281 28.152344 12.296875 28.253906 L 17.203125 30.972656 C 17.386719 31.070313 17.613281 31.070313 17.796875 30.972656 L 22.703125 28.253906 C 22.886719 28.152344 23 27.964844 23 27.761719 L 23 22.328125 C 23 22.125 22.886719 21.9375 22.703125 21.835938 L 17.796875 19.121094 C 17.703125 19.070313 17.601563 19.046875 17.5 19.046875 C 17.398438 19.046875 17.296875 19.070313 17.203125 19.121094" fill="#388e3c"/><path d="M 42.449219 24.011719 L 41.632813 24.464844 C 41.601563 24.480469 41.585938 24.511719 41.585938 24.546875 L 41.585938 25.453125 C 41.585938 25.488281 41.601563 25.519531 41.632813 25.535156 L 42.449219 25.988281 C 42.480469 26.003906 42.519531 26.003906 42.550781 25.988281 L 43.367188 25.535156 C 43.398438 25.519531 43.417969 25.488281 43.417969 25.453125 L 43.417969 24.546875 C 43.417969 24.511719 43.398438 24.480469 43.367188 24.464844 L 42.550781 24.011719 C 42.535156 24.003906 42.515625 24 42.5 24 C 42.484375 24 42.464844 24.003906 42.449219 24.011719" fill="#388e3c"/><path d="M 35.75 13.363281 L 33.363281 12.03125 C 33.285156 11.988281 33.195313 11.988281 33.121094 12.035156 C 33.046875 12.078125 33 12.15625 33 12.242188 L 33 20.296875 L 30.796875 19.074219 C 30.703125 19.023438 30.601563 19 30.5 19 C 30.398438 19 30.296875 19.023438 30.203125 19.074219 L 25.296875 21.789063 C 25.113281 21.890625 25 22.078125 25 22.28125 L 25 27.714844 C 25 27.917969 25.113281 28.105469 25.296875 28.207031 L 30.203125 30.925781 C 30.386719 31.023438 30.613281 31.023438 30.796875 30.925781 L 35.703125 28.207031 C 35.886719 28.105469 36 27.917969 36 27.714844 L 36 13.789063 C 36 13.613281 35.902344 13.449219 35.75 13.363281 Z M 32.867188 26.457031 L 30.636719 27.691406 C 30.554688 27.738281 30.449219 27.738281 30.367188 27.691406 L 28.136719 26.457031 C 28.050781 26.410156 28 26.324219 28 26.234375 L 28 23.765625 C 28 23.671875 28.050781 23.585938 28.136719 23.539063 L 30.367188 22.304688 L 30.363281 22.304688 C 30.40625 22.28125 30.453125 22.273438 30.5 22.273438 C 30.546875 22.273438 30.59375 22.285156 30.636719 22.304688 L 32.863281 23.539063 C 32.949219 23.585938 33 23.671875 33 23.765625 L 33 26.234375 C 33 26.324219 32.949219 26.410156 32.867188 26.457031 Z" fill="#37474f"/><path d="M 17.203125 19.121094 L 12 27.761719 C 12 27.964844 12.113281 28.152344 12.296875 28.253906 L 17.203125 30.972656 C 17.386719 31.070313 17.613281 31.070313 17.796875 30.972656 L 23 22.328125 C 23 22.125 22.886719 21.9375 22.703125 21.835938 L 17.796875 19.121094 C 17.703125 19.070313 17.601563 19.046875 17.5 19.046875 C 17.398438 19.046875 17.296875 19.070313 17.203125 19.121094" fill="#2e7d32"/><path d="M 17.203125 19.121094 L 12.296875 21.835938 C 12.113281 21.9375 12 22.125 12 22.328125 L 17.203125 30.972656 C 17.386719 31.070313 17.613281 31.070313 17.796875 30.972656 L 22.703125 28.253906 C 22.886719 28.152344 23 27.964844 23 27.761719 L 17.796875 19.121094 C 17.703125 19.070313 17.601563 19.046875 17.5 19.046875 C 17.398438 19.046875 17.296875 19.070313 17.203125 19.121094" fill="#4caf50"/><path d="M 47.703125 21.789063 L 42.796875 19.074219 C 42.703125 19.023438 42.601563 19 42.5 19 C 42.398438 19 42.296875 19.023438 42.203125 19.074219 L 37.296875 21.789063 C 37.113281 21.890625 37 22.085938 37 22.292969 L 37 27.703125 C 37 27.914063 37.113281 28.105469 37.296875 28.207031 L 42.203125 30.925781 C 42.390625 31.027344 42.613281 31.027344 42.796875 30.925781 L 45.0625 29.671875 C 45.269531 29.558594 45.265625 29.261719 45.058594 29.144531 L 40.136719 26.460938 C 40.050781 26.410156 40 26.324219 40 26.230469 L 40 23.765625 C 40 23.671875 40.050781 23.589844 40.128906 23.542969 L 42.363281 22.308594 C 42.40625 22.285156 42.453125 22.273438 42.5 22.273438 C 42.546875 22.273438 42.59375 22.285156 42.632813 22.308594 L 44.867188 23.546875 C 44.949219 23.589844 45 23.675781 45 23.765625 L 45 25.777344 C 45 25.863281 45.046875 25.945313 45.121094 25.988281 C 45.195313 26.027344 45.285156 26.027344 45.363281 25.984375 L 47.761719 24.59375 C 47.90625 24.507813 48 24.347656 48 24.175781 L 48 22.296875 C 48 22.085938 47.886719 21.890625 47.703125 21.789063 Z" fill="#37474f"/><path d="M 10.703125 21.789063 L 5.796875 19.074219 C 5.703125 19.023438 5.601563 19 5.5 19 C 5.398438 19 5.296875 19.023438 5.203125 19.074219 L 0.296875 21.789063 C 0.113281 21.890625 0 22.085938 0 22.292969 L 0 29.757813 C 0 29.84375 0.046875 29.925781 0.121094 29.96875 C 0.195313 30.011719 0.289063 30.011719 0.363281 29.96875 L 2.761719 28.574219 C 2.910156 28.488281 3 28.328125 3 28.15625 L 3 23.765625 C 3 23.671875 3.050781 23.585938 3.128906 23.542969 L 5.363281 22.308594 C 5.40625 22.285156 5.453125 22.273438 5.5 22.273438 C 5.546875 22.273438 5.59375 22.285156 5.636719 22.308594 L 7.871094 23.542969 C 7.949219 23.589844 8 23.671875 8 23.765625 L 8 28.15625 C 8 28.328125 8.089844 28.488281 8.238281 28.574219 L 10.636719 29.96875 C 10.714844 30.011719 10.804688 30.011719 10.878906 29.96875 C 10.953125 29.925781 11 29.84375 11 29.757813 L 11 22.296875 C 11 22.085938 10.886719 21.890625 10.703125 21.789063 Z" fill="#37474f"/></svg>
